client/src/assets/icon-logout.svg

<svg height="24" viewBox="0 0 24 24" width="24" xmlns="http://www.w3.org/2000/svg"><path d="m13.967 21.3 1.866 1.867 6.667-6.667-6.667-6.667-1.866 1.867 3.467 3.467h-12.934v2.667h12.866zm11.866-16.8h-18.666a2.674 2.674 0 0 0 -2.667 2.667v5.333h2.667v-5.333h18.666v18.666h-18.666v-5.333h-2.667v5.333a2.674 2.674 0 0 0 2.667 2.667h18.666a2.674 2.674 0 0 0 2.667-2.667v-18.666a2.674 2.674 0 0 0 -2.667-2.667z" transform="translate(-4.5 -4.5)"/></svg>

<svg xmlns="http://www.w3.org/2000/svg" width="24" height="24" viewBox="0 0 24 24">
  <path id="Icon_ionic-md-exit" data-name="Icon ionic-md-exit" d="M13.967,21.3l1.866,1.867L22.5,16.5,15.833,9.833,13.967,11.7l3.467,3.467H4.5v2.667H17.366ZM25.833,4.5H7.167A2.674,2.674,0,0,0,4.5,7.167V12.5H7.167V7.167H25.833V25.833H7.167V20.5H4.5v5.333A2.674,2.674,0,0,0,7.167,28.5H25.833A2.674,2.674,0,0,0,28.5,25.833V7.167A2.674,2.674,0,0,0,25.833,4.5Z" transform="translate(-4.5 -4.5)"/>
</svg>
